src/assets/card/m6.svg

<svg width="100" height="130" viewBox="0 0 100 130" fill="none" xmlns="http://www.w3.org/2000/svg">
<g id="m6">
<g id="bounding-box">
<g id="M6-Sticker">
<g id="Group 158">
<path id="Union" fill-rule="evenodd" clip-rule="evenodd" d="M80 91.2174C76.7391 91.2174 69.4348 91.7391 65 100.348C65.7605 100.728 75.0161 105.996 71.5217 106.87C70.5334 107.117 68.913 106.87 68.913 106.87L72.1739 110.783C72.1739 110.783 74.0197 111.238 75.1087 111.761C77.3871 112.855 80 116 80 116C80 116 82.6129 112.855 84.8913 111.761C85.9803 111.238 87.8261 110.783 87.8261 110.783L91.087 106.87C91.087 106.87 89.4666 107.117 88.4783 106.87C84.9839 105.996 94.2395 100.728 95 100.348C90.5652 91.7391 83.2609 91.2174 80 91.2174Z" fill="#212121"/>
<path id="Union_2" fill-rule="evenodd" clip-rule="evenodd" d="M77.3914 110.13C77.3914 110.13 77.8034 110.514 78.0435 110.783C79.1828 112.056 80.0001 114.696 80.0001 114.696C80.0001 114.696 80.8173 112.056 81.9566 110.783C82.1967 110.514 82.6087 110.13 82.6087 110.13C82.6087 110.13 81.7539 109.828 81.3044 109.478C80.5795 108.914 80.0001 107.522 80.0001 107.522C80.0001 107.522 79.4206 108.914 78.6957 109.478C78.2462 109.828 77.3914 110.13 77.3914 110.13Z" fill="url(#paint0_linear_287_58144)"/>
<g id="left">
<g id="Group 156">
<path id="Vector 223" d="M70.2174 99.6957C71.5218 101.522 71.1957 102.63 70.8696 102.957L72.1739 104.913C72.3913 103.717 72.3044 101 70.2174 99.6957Z" fill="url(#paint1_linear_287_58144)"/>
<path id="Vector 220" d="M74.1304 93.1739C74.1304 93.1739 73.1929 95.533 72.1739 96.7609C70.4582 98.828 66.3043 100.348 66.3043 100.348" stroke="url(#paint2_linear_287_58144)" stroke-width="0.326087"/>
<path id="Vector 219" d="M72.8261 93.1739C72.8261 93.1739 71.6411 95.2958 70.2174 96.4348C68.7936 97.5738 66.3043 98.3913 66.3043 98.3913" stroke="url(#paint3_linear_287_58144)" stroke-width="0.326087"/>
</g>
<path id="Intersect" fill-rule="evenodd" clip-rule="evenodd" d="M74.7875 91.8933C71.5072 92.8372 67.7156 95.0764 65 100.348C65.7605 100.728 75.0161 105.996 71.5217 106.87C70.5334 107.117 68.913 106.87 68.913 106.87L72.1739 110.783C72.1739 110.783 74.0197 111.238 75.1087 111.761C77.0121 112.675 79.1489 115.02 79.8008 115.768L76.087 111.435H77.3913L75.4348 110.13H72.8261L70.8696 107.522H73.4783C73.3696 107.196 73.3478 106.478 74.1304 106.217C72.1771 103.427 68.7912 101.353 67.2418 100.404C66.9806 100.244 66.7716 100.116 66.6304 100.022C67.1522 96.3696 71.7391 93.8261 74.1304 93.1739C74.3478 93.6087 75.0435 94.4783 76.087 94.4783C75.3155 93.7068 74.9032 92.4496 74.7875 91.8933Z" fill="url(#paint4_linear_287_58144)"/>
</g>
<g id="Group 157">
<path id="Vector 223_2" d="M89.7826 99.6957C88.4782 101.522 88.8043 102.63 89.1304 102.957L87.8261 104.913C87.6087 103.717 87.6956 101 89.7826 99.6957Z" fill="url(#paint5_linear_287_58144)"/>
<path id="Vector 220_2" d="M85.8696 93.1739C85.8696 93.1739 86.8071 95.533 87.8261 96.7609C89.5418 98.828 93.6957 100.348 93.6957 100.348" stroke="url(#paint6_linear_287_58144)" stroke-width="0.326087"/>
<path id="Vector 219_2" d="M87.1739 93.1739C87.1739 93.1739 88.3589 95.2958 89.7826 96.4348C91.2064 97.5738 93.6957 98.3913 93.6957 98.3913" stroke="url(#paint7_linear_287_58144)" stroke-width="0.326087"/>
</g>
<g id="right">
<path id="Intersect_2" fill-rule="evenodd" clip-rule="evenodd" d="M85.2125 91.8933C88.4928 92.8372 92.2844 95.0764 95 100.348C94.2395 100.728 84.9839 105.996 88.4783 106.87C89.4666 107.117 91.087 106.87 91.087 106.87L87.8261 110.783C87.8261 110.783 85.9803 111.238 84.8913 111.761C82.9879 112.675 80.8511 115.02 80.1992 115.768L83.913 111.435H82.6087L84.5652 110.13H87.1739L89.1304 107.522H86.5217C86.6304 107.196 86.6522 106.478 85.8696 106.217C87.8229 103.427 91.2088 101.353 92.7582 100.404C93.0194 100.244 93.2284 100.116 93.3696 100.022C92.8478 96.3696 88.2609 93.8261 85.8696 93.1739C85.6522 93.6087 84.9565 94.4783 83.913 94.4783C84.6845 93.7068 85.0968 92.4496 85.2125 91.8933Z" fill="url(#paint8_linear_287_58144)"/>
<path id="Union_3" fill-rule="evenodd" clip-rule="evenodd" d="M80 91.2174V95.7826L80.6522 92.5217C81.3044 92.5217 82.7392 92.7826 83.2609 93.8261C83.9805 92.9266 84.3279 92.1822 84.4742 91.6998C82.6953 91.2781 81.1124 91.2174 80 91.2174ZM80 91.2174V95.7826L79.3478 92.5217C78.6957 92.5217 77.2609 92.7826 76.7391 93.8261C76.0196 92.9266 75.6721 92.1822 75.5258 91.6998C77.3048 91.2781 78.8876 91.2174 80 91.2174Z" fill="url(#paint9_linear_287_58144)"/>
</g>
<path id="Union_4" fill-rule="evenodd" clip-rule="evenodd" d="M72.826 91.8696L74.7826 88.6087L76.0869 89.913L76.7391 87.3043L78.6956 88.6087L80 86L81.3043 88.6087L83.2608 87.3043L83.913 89.913L85.2174 88.6087L87.1739 91.8696C87.1739 91.8696 84.9877 91.146 83.5869 90.8913C82.1861 90.6366 80 90.5652 80 90.5652C80 90.5652 77.8138 90.6366 76.413 90.8913C75.0122 91.146 72.826 91.8696 72.826 91.8696Z" fill="url(#paint10_linear_287_58144)"/>
<path id="Union_5" fill-rule="evenodd" clip-rule="evenodd" d="M79.7553 88.0869C79.8717 87.7712 80 87.3044 80 87.3044C80 87.3044 80.1282 87.7712 80.2446 88.0869C80.2732 88.1642 80.301 88.2325 80.326 88.2826C80.4534 88.5373 80.6521 88.6087 80.6521 88.6087C80.6521 88.6087 80.4534 88.6801 80.326 88.9348C80.301 88.9849 80.2732 89.0532 80.2446 89.1305C80.1282 89.4462 80 89.913 80 89.913C80 89.913 79.8717 89.4462 79.7553 89.1305C79.7267 89.0532 79.6989 88.9849 79.6739 88.9348C79.5465 88.6801 79.3478 88.6087 79.3478 88.6087C79.3478 88.6087 79.5465 88.5373 79.6739 88.2826C79.6989 88.2325 79.7267 88.1642 79.7553 88.0869Z" fill="#212121"/>
<g id="Group 155">
<g id="M6" filter="url(#filter0_f_287_58144)">
<path d="M79.33 102.87L78.0271 105.197H76.7241L75.4212 102.87V106.5H73.746V99.9853H75.5142L77.3756 103.429L79.2369 99.9853H81.0052V106.5H79.33V102.87ZM83.7078 99.8922C84.5578 99.8922 85.5815 99.9543 86.779 100.078V101.335C86.4377 101.316 86.1461 101.301 85.9042 101.288C85.6684 101.27 85.473 101.257 85.3178 101.251C85.1689 101.239 85.02 101.226 84.8711 101.214C84.6229 101.201 84.3934 101.195 84.1824 101.195C83.8039 101.195 83.6147 101.35 83.6147 101.661V102.498C84.2165 102.374 84.7439 102.312 85.1969 102.312H85.8483C86.2702 102.312 86.6084 102.439 86.8628 102.694C87.1171 102.948 87.2443 103.286 87.2443 103.708V104.918C87.2443 105.482 87.1016 105.904 86.8162 106.184C86.5308 106.457 86.0841 106.593 85.4761 106.593H83.7078C83.0997 106.593 82.653 106.457 82.3676 106.184C82.0822 105.904 81.9395 105.482 81.9395 104.918V101.661C81.9395 101.052 82.0822 100.606 82.3676 100.32C82.653 100.035 83.0997 99.8922 83.7078 99.8922ZM84.7315 103.615C84.4957 103.615 84.2786 103.627 84.08 103.652C83.8877 103.677 83.7326 103.696 83.6147 103.708V104.732C83.6147 105.104 83.8008 105.29 84.1731 105.29H85.0107C85.383 105.29 85.5691 105.104 85.5691 104.732V103.941C85.5691 103.848 85.5381 103.77 85.4761 103.708C85.414 103.646 85.3365 103.615 85.2434 103.615H84.7315Z" fill="url(#paint11_linear_287_58144)"/>
</g>
<path id="M6_2" d="M79.33 102.87L78.0271 105.197H76.7241L75.4212 102.87V106.5H73.746V99.9853H75.5142L77.3756 103.429L79.2369 99.9853H81.0052V106.5H79.33V102.87ZM83.7078 99.8922C84.5578 99.8922 85.5815 99.9543 86.779 100.078V101.335C86.4377 101.316 86.1461 101.301 85.9042 101.288C85.6684 101.27 85.473 101.257 85.3178 101.251C85.1689 101.239 85.02 101.226 84.8711 101.214C84.6229 101.201 84.3934 101.195 84.1824 101.195C83.8039 101.195 83.6147 101.35 83.6147 101.661V102.498C84.2165 102.374 84.7439 102.312 85.1969 102.312H85.8483C86.2702 102.312 86.6084 102.439 86.8628 102.694C87.1171 102.948 87.2443 103.286 87.2443 103.708V104.918C87.2443 105.482 87.1016 105.904 86.8162 106.184C86.5308 106.457 86.0841 106.593 85.4761 106.593H83.7078C83.0997 106.593 82.653 106.457 82.3676 106.184C82.0822 105.904 81.9395 105.482 81.9395 104.918V101.661C81.9395 101.052 82.0822 100.606 82.3676 100.32C82.653 100.035 83.0997 99.8922 83.7078 99.8922ZM84.7315 103.615C84.4957 103.615 84.2786 103.627 84.08 103.652C83.8877 103.677 83.7326 103.696 83.6147 103.708V104.732C83.6147 105.104 83.8008 105.29 84.1731 105.29H85.0107C85.383 105.29 85.5691 105.104 85.5691 104.732V103.941C85.5691 103.848 85.5381 103.77 85.4761 103.708C85.414 103.646 85.3365 103.615 85.2434 103.615H84.7315Z" fill="white"/>
</g>
<g id="Group 228">
<path id="2024" d="M77.2745 97.2001C77.2745 97.4307 77.1769 97.63 76.9816 97.7981C76.922 97.8497 76.8569 97.9012 76.7864 97.9527L75.9118 98.5833H77.2745V99.1528H75.0778V98.3799L76.5423 97.3222V97.1188C76.5423 96.9561 76.4609 96.8747 76.2982 96.8747H75.1592V96.3052H76.4609C76.7457 96.3052 76.9518 96.3703 77.0793 96.5004C77.2094 96.6279 77.2745 96.834 77.2745 97.1188V97.2001ZM79.2265 97.0781C79.2265 96.9154 79.1452 96.834 78.9824 96.834H78.535C78.3723 96.834 78.2909 96.9154 78.2909 97.0781V98.3799C78.2909 98.5426 78.3723 98.6239 78.535 98.6239H78.9824C79.1452 98.6239 79.2265 98.5426 79.2265 98.3799V97.0781ZM79.9588 98.3799C79.9588 98.6646 79.8937 98.8721 79.7635 99.0023C79.636 99.1297 79.4299 99.1935 79.1452 99.1935H78.3723C78.0875 99.1935 77.88 99.1297 77.7499 99.0023C77.6224 98.8721 77.5587 98.6646 77.5587 98.3799V97.0781C77.5587 96.7933 77.6224 96.5872 77.7499 96.4598C77.88 96.3296 78.0875 96.2645 78.3723 96.2645H79.1452C79.4299 96.2645 79.636 96.3296 79.7635 96.4598C79.8937 96.5872 79.9588 96.7933 79.9588 97.0781V98.3799ZM82.3992 97.2001C82.3992 97.4307 82.3016 97.63 82.1063 97.7981C82.0467 97.8497 81.9816 97.9012 81.9111 97.9527L81.0365 98.5833H82.3992V99.1528H80.2025V98.3799L81.667 97.3222V97.1188C81.667 96.9561 81.5856 96.8747 81.4229 96.8747H80.2839V96.3052H81.5856C81.8704 96.3052 82.0765 96.3703 82.204 96.5004C82.3341 96.6279 82.3992 96.834 82.3992 97.1188V97.2001ZM83.9443 98.5833H82.4391V98.0137L83.4154 96.3052H84.229L83.2527 98.0137H83.9443V97.4035H84.6765V98.0137H84.9613V98.5833H84.6765V99.1528H83.9443V98.5833Z" fill="#F5F1EE"/>
</g>
</g>
</g>
</g>
</g>
<defs>
<filter id="filter0_f_287_58144" x="71.2025" y="97.3488" width="18.5854" height="11.7878" filterUnits="userSpaceOnUse" color-interpolation-filters="sRGB">
<feFlood flood-opacity="0" result="BackgroundImageFix"/>
<feBlend mode="normal" in="SourceGraphic" in2="BackgroundImageFix" result="shape"/>
<feGaussianBlur stdDeviation="1.27174" result="effect1_foregroundBlur_287_58144"/>
</filter>
<linearGradient id="paint0_linear_287_58144" x1="80.0001" y1="107.522" x2="80.0001" y2="114.696" gradientUnits="userSpaceOnUse">
<stop stop-color="#AB750F"/>
<stop offset="0.516" stop-color="#D8A956"/>
<stop offset="1" stop-color="#AB750F"/>
</linearGradient>
<linearGradient id="paint1_linear_287_58144" x1="70.1221" y1="102.304" x2="72.2924" y2="102.304" gradientUnits="userSpaceOnUse">
<stop stop-color="#AB750F"/>
<stop offset="0.516" stop-color="#D8A956"/>
<stop offset="1" stop-color="#AB750F"/>
</linearGradient>
<linearGradient id="paint2_linear_287_58144" x1="65.9385" y1="96.7609" x2="74.2736" y2="96.7609" gradientUnits="userSpaceOnUse">
<stop stop-color="#AB750F"/>
<stop offset="0.516" stop-color="#D8A956"/>
<stop offset="1" stop-color="#AB750F"/>
</linearGradient>
<linearGradient id="paint3_linear_287_58144" x1="65.9994" y1="95.7826" x2="72.9454" y2="95.7826" gradientUnits="userSpaceOnUse">
<stop stop-color="#AB750F"/>
<stop offset="0.516" stop-color="#D8A956"/>
<stop offset="1" stop-color="#AB750F"/>
</linearGradient>
<linearGradient id="paint4_linear_287_58144" x1="64.3081" y1="103.831" x2="80.0716" y2="103.831" gradientUnits="userSpaceOnUse">
<stop stop-color="#AB750F"/>
<stop offset="0.516" stop-color="#D8A956"/>
<stop offset="1" stop-color="#AB750F"/>
</linearGradient>
<linearGradient id="paint5_linear_287_58144" x1="89.8779" y1="102.304" x2="87.7076" y2="102.304" gradientUnits="userSpaceOnUse">
<stop stop-color="#AB750F"/>
<stop offset="0.516" stop-color="#D8A956"/>
<stop offset="1" stop-color="#AB750F"/>
</linearGradient>
<linearGradient id="paint6_linear_287_58144" x1="94.0615" y1="96.7609" x2="85.7264" y2="96.7609" gradientUnits="userSpaceOnUse">
<stop stop-color="#AB750F"/>
<stop offset="0.516" stop-color="#D8A956"/>
<stop offset="1" stop-color="#AB750F"/>
</linearGradient>
<linearGradient id="paint7_linear_287_58144" x1="94.0006" y1="95.7826" x2="87.0546" y2="95.7826" gradientUnits="userSpaceOnUse">
<stop stop-color="#AB750F"/>
<stop offset="0.516" stop-color="#D8A956"/>
<stop offset="1" stop-color="#AB750F"/>
</linearGradient>
<linearGradient id="paint8_linear_287_58144" x1="95.6919" y1="103.831" x2="79.9284" y2="103.831" gradientUnits="userSpaceOnUse">
<stop stop-color="#AB750F"/>
<stop offset="0.516" stop-color="#D8A956"/>
<stop offset="1" stop-color="#AB750F"/>
</linearGradient>
<linearGradient id="paint9_linear_287_58144" x1="84.8926" y1="93.5" x2="75.3621" y2="93.5" gradientUnits="userSpaceOnUse">
<stop stop-color="#AB750F"/>
<stop offset="0.516" stop-color="#D8A956"/>
<stop offset="1" stop-color="#AB750F"/>
</linearGradient>
<linearGradient id="paint10_linear_287_58144" x1="72.1553" y1="88.9348" x2="87.4363" y2="88.9348" gradientUnits="userSpaceOnUse">
<stop stop-color="#AB750F"/>
<stop offset="0.516" stop-color="#D8A956"/>
<stop offset="1" stop-color="#AB750F"/>
</linearGradient>
<linearGradient id="paint11_linear_287_58144" x1="72.1073" y1="103" x2="88.0829" y2="103" gradientUnits="userSpaceOnUse">
<stop stop-color="#AB750F"/>
<stop offset="0.516" stop-color="#D8A956"/>
<stop offset="1" stop-color="#AB750F"/>
</linearGradient>
</defs>
</svg>

<svg xmlns="http://www.w3.org/2000/svg" width="100" height="130" fill="none" xmlns:v="https://vecta.io/nano"><g fill-rule="evenodd"><path d="M80 91.217c-3.261 0-10.565.522-15 9.131.76.38 10.016 5.648 6.522 6.522-.988.247-2.609 0-2.609 0l3.261 3.913s1.846.455 2.935.978C77.387 112.855 80 116 80 116s2.613-3.145 4.891-4.239c1.089-.523 2.935-.978 2.935-.978l3.261-3.913s-1.62.247-2.609 0c-3.494-.874 5.761-6.142 6.522-6.522-4.435-8.609-11.739-9.131-15-9.131z" fill="#212121"/><path d="M77.391 110.13l.652.653c1.139 1.273 1.957 3.913 1.957 3.913s.817-2.64 1.956-3.913c.24-.269.652-.653.652-.653s-.855-.302-1.304-.652c-.725-.564-1.304-1.956-1.304-1.956s-.58 1.392-1.304 1.956c-.45.35-1.304.652-1.304.652z" fill="url(#B)"/></g><path d="M70.217 99.696c1.304 1.826.978 2.934.652 3.261l1.304 1.956c.217-1.196.13-3.913-1.957-5.217z" fill="url(#C)"/><g stroke-width=".326"><path d="M74.1304 93.1739C74.1304 93.1739 73.1929 95.533 72.1739 96.7609C70.4582 98.828 66.3043 100.348 66.3043 100.348" stroke="url(#D)"/><path d="M72.8261 93.1739C72.8261 93.1739 71.6411 95.2958 70.2174 96.4348C68.7936 97.5738 66.3043 98.3913 66.3043 98.3913" stroke="url(#E)"/></g><path fill-rule="evenodd" d="M74.788 91.893c-3.28.944-7.072 3.183-9.787 8.455.76.38 10.016 5.648 6.522 6.522-.988.247-2.609 0-2.609 0l3.261 3.913s1.846.455 2.935.978c1.903.914 4.04 3.259 4.692 4.007l-3.714-4.333h1.304l-1.957-1.305h-2.609l-1.956-2.608h2.609c-.109-.326-.13-1.044.652-1.305-1.953-2.79-5.339-4.864-6.889-5.813l-.611-.382c.522-3.652 5.109-6.196 7.5-6.848.217.435.913 1.304 1.957 1.304-.772-.772-1.184-2.029-1.3-2.585z" fill="url(#F)"/><path d="M89.783 99.696c-1.304 1.826-.978 2.934-.652 3.261l-1.304 1.956c-.217-1.196-.13-3.913 1.957-5.217z" fill="url(#G)"/><g stroke-width=".326"><path d="M85.8696 93.1739C85.8696 93.1739 86.8071 95.533 87.8261 96.7609C89.5418 98.828 93.6957 100.348 93.6957 100.348" stroke="url(#H)"/><path d="M87.1739 93.1739C87.1739 93.1739 88.3589 95.2958 89.7826 96.4348C91.2064 97.5738 93.6957 98.3913 93.6957 98.3913" stroke="url(#I)"/></g><g fill-rule="evenodd"><path d="M85.213 91.893c3.28.944 7.072 3.183 9.787 8.455-.76.38-10.016 5.648-6.522 6.522.988.247 2.609 0 2.609 0l-3.261 3.913s-1.846.455-2.935.978c-1.903.914-4.04 3.259-4.692 4.007l3.714-4.333h-1.304l1.957-1.305h2.609l1.956-2.608h-2.609c.109-.326.13-1.044-.652-1.305 1.953-2.79 5.339-4.864 6.889-5.813l.611-.382c-.522-3.652-5.109-6.196-7.5-6.848-.217.435-.913 1.304-1.957 1.304.772-.772 1.184-2.029 1.3-2.585z" fill="url(#J)"/><path d="M80 91.217v4.565l.652-3.261c.652 0 2.087.261 2.609 1.304.72-.9 1.067-1.644 1.213-2.126-1.779-.422-3.362-.482-4.474-.482zm0 0v4.565l-.652-3.261c-.652 0-2.087.261-2.609 1.304-.719-.9-1.067-1.644-1.213-2.126 1.779-.422 3.362-.482 4.474-.482z" fill="url(#K)"/><path d="M72.826 91.87l1.957-3.261 1.304 1.304.652-2.609 1.957 1.304L80 86l1.304 2.609 1.957-1.304.652 2.609 1.304-1.304 1.957 3.261s-2.186-.724-3.587-.978S80 90.565 80 90.565s-2.186.071-3.587.326-3.587.978-3.587.978z" fill="url(#L)"/><path d="M79.755 88.087c.116-.316.245-.782.245-.782l.245.782.081.196a.66.66 0 0 0 .326.326s-.199.071-.326.326c-.025.05-.053.118-.081.196l-.245.782-.245-.782-.081-.196c-.127-.255-.326-.326-.326-.326s.199-.071.326-.326c.025-.05.053-.118.081-.196z" fill="#212121"/></g><g filter="url(#A)"><use href="#N" fill="url(#M)"/></g><use href="#N" fill="#fff"/><path d="M77.275 97.2c0 .231-.098.43-.293.598l-.195.155-.875.631h1.363v.57h-2.197v-.773l1.465-1.058v-.203c0-.163-.081-.244-.244-.244h-1.139v-.57h1.302c.285 0 .491.065.618.195s.195.334.195.618v.081zm1.952-.122c0-.163-.081-.244-.244-.244h-.447c-.163 0-.244.081-.244.244v1.302c0 .163.081.244.244.244h.447c.163 0 .244-.081.244-.244v-1.302zm.732 1.302c0 .285-.065.492-.195.622s-.334.191-.618.191h-.773c-.285 0-.492-.064-.622-.191s-.191-.338-.191-.622v-1.302c0-.285.064-.491.191-.618s.338-.195.622-.195h.773c.285 0 .491.065.618.195s.195.334.195.618v1.302zm2.44-1.18c0 .231-.098.43-.293.598l-.195.155-.875.631h1.363v.57h-2.197v-.773l1.465-1.058v-.203c0-.163-.081-.244-.244-.244h-1.139v-.57h1.302c.285 0 .491.065.618.195s.195.334.195.618v.081zm1.545 1.383h-1.505v-.57l.976-1.709h.814l-.976 1.709h.692v-.61h.732v.61h.285v.57h-.285v.57h-.732v-.57z" fill="#f5f1ee"/><defs><filter id="A" x="71.203" y="97.349" width="18.585" height="11.788" filterUnits="userSpaceOnUse" color-interpolation-filters="sRGB"><feFlood flood-opacity="0"/><feBlend in="SourceGraphic"/><feGaussianBlur stdDeviation="1.272"/></filter><linearGradient id="B" x1="80" y1="107.522" x2="80" y2="114.696" href="#O"><stop stop-color="#ab750f"/><stop offset=".516" stop-color="#d8a956"/><stop offset="1" stop-color="#ab750f"/></linearGradient><linearGradient id="C" x1="70.122" y1="102.304" x2="72.292" y2="102.304" href="#O"><stop stop-color="#ab750f"/><stop offset=".516" stop-color="#d8a956"/><stop offset="1" stop-color="#ab750f"/></linearGradient><linearGradient id="D" x1="65.939" y1="96.761" x2="74.274" y2="96.761" href="#O"><stop stop-color="#ab750f"/><stop offset=".516" stop-color="#d8a956"/><stop offset="1" stop-color="#ab750f"/></linearGradient><linearGradient id="E" x1="65.999" y1="95.783" x2="72.945" y2="95.783" href="#O"><stop stop-color="#ab750f"/><stop offset=".516" stop-color="#d8a956"/><stop offset="1" stop-color="#ab750f"/></linearGradient><linearGradient id="F" x1="64.308" y1="103.831" x2="80.072" y2="103.831" href="#O"><stop stop-color="#ab750f"/><stop offset=".516" stop-color="#d8a956"/><stop offset="1" stop-color="#ab750f"/></linearGradient><linearGradient id="G" x1="89.878" y1="102.304" x2="87.708" y2="102.304" href="#O"><stop stop-color="#ab750f"/><stop offset=".516" stop-color="#d8a956"/><stop offset="1" stop-color="#ab750f"/></linearGradient><linearGradient id="H" x1="94.062" y1="96.761" x2="85.726" y2="96.761" href="#O"><stop stop-color="#ab750f"/><stop offset=".516" stop-color="#d8a956"/><stop offset="1" stop-color="#ab750f"/></linearGradient><linearGradient id="I" x1="94.001" y1="95.783" x2="87.055" y2="95.783" href="#O"><stop stop-color="#ab750f"/><stop offset=".516" stop-color="#d8a956"/><stop offset="1" stop-color="#ab750f"/></linearGradient><linearGradient id="J" x1="95.692" y1="103.831" x2="79.928" y2="103.831" href="#O"><stop stop-color="#ab750f"/><stop offset=".516" stop-color="#d8a956"/><stop offset="1" stop-color="#ab750f"/></linearGradient><linearGradient id="K" x1="84.893" y1="93.5" x2="75.362" y2="93.5" href="#O"><stop stop-color="#ab750f"/><stop offset=".516" stop-color="#d8a956"/><stop offset="1" stop-color="#ab750f"/></linearGradient><linearGradient id="L" x1="72.155" y1="88.935" x2="87.436" y2="88.935" href="#O"><stop stop-color="#ab750f"/><stop offset=".516" stop-color="#d8a956"/><stop offset="1" stop-color="#ab750f"/></linearGradient><linearGradient id="M" x1="72.107" y1="103" x2="88.083" y2="103" href="#O"><stop stop-color="#ab750f"/><stop offset=".516" stop-color="#d8a956"/><stop offset="1" stop-color="#ab750f"/></linearGradient><path id="N" d="M79.33 102.87l-1.303 2.327h-1.303l-1.303-2.327v3.63h-1.675v-6.515h1.768l1.861 3.444 1.861-3.444h1.768v6.515H79.33v-3.63zm4.378-2.978c.85 0 1.874.062 3.071.186v1.257l-.875-.047-.586-.037-.447-.037-.689-.019c-.379 0-.568.155-.568.466v.837c.602-.124 1.129-.186 1.582-.186h.651c.422 0 .76.127 1.014.382s.382.592.382 1.014v1.21c0 .564-.143.986-.428 1.266-.285.273-.732.409-1.34.409h-1.768c-.608 0-1.055-.136-1.34-.409-.285-.28-.428-.702-.428-1.266v-3.257c0-.609.143-1.055.428-1.341s.732-.428 1.34-.428zm1.024 3.723a5.24 5.24 0 0 0-.651.037l-.465.056v1.024c0 .372.186.558.558.558h.838c.372 0 .558-.186.558-.558v-.791c0-.093-.031-.171-.093-.233s-.14-.093-.233-.093h-.512z"/><linearGradient id="O" gradientUnits="userSpaceOnUse"/></defs></svg>
